overrides/.icons/class/abl/chdiv-cleric.svg

<?xml version="1.0" encoding="UTF-8" standalone="no"?>
<svg
   version="1.0"
   width="24"
   height="24"
   viewBox="0 0 18 18"
   preserveAspectRatio="xMidYMid"
   id="svg1"
   sodipodi:docname="phb24-cleric.svg"
   xml:space="preserve"
   inkscape:version="1.3.2 (091e20e, 2023-11-25, custom)"
   xmlns:inkscape="http://www.inkscape.org/namespaces/inkscape"
   xmlns:sodipodi="http://sodipodi.sourceforge.net/DTD/sodipodi-0.dtd"
   xmlns="http://www.w3.org/2000/svg"
   xmlns:svg="http://www.w3.org/2000/svg"><defs
     id="defs1" /><sodipodi:namedview
     id="namedview1"
     pagecolor="#ffffff"
     bordercolor="#111111"
     borderopacity="1"
     inkscape:showpageshadow="0"
     inkscape:pageopacity="0"
     inkscape:pagecheckerboard="1"
     inkscape:deskcolor="#d1d1d1"
     inkscape:document-units="pt"
     inkscape:zoom="7.3397684"
     inkscape:cx="1.1580747"
     inkscape:cy="6.6078379"
     inkscape:window-width="1366"
     inkscape:window-height="697"
     inkscape:window-x="-8"
     inkscape:window-y="-8"
     inkscape:window-maximized="1"
     inkscape:current-layer="svg1" /><g
     transform="matrix(0.1,0,0,-0.1,0,300)"
     fill="#000000"
     stroke="none"
     id="g1" /><path
     style="stroke:none;stroke-width:1"
     d="M 15.576694,2.4013592 C 15.21568,2.7094951 14.734151,2.9318869 14.309418,3.1442516 13.019469,3.789221 11.201225,4.6724878 9.9103532,3.6103785 9.0977791,2.9418084 8.9116175,1.7954229 8.3663089,0.95928378 7.9322778,1.8996732 7.4521553,2.7802699 6.7931335,3.5812438 6.2730567,4.2133922 5.6160617,4.7123821 4.739265,4.6737276 4.4259026,4.6599042 4.0824885,4.5907529 3.7851627,4.4916453 3.3811487,4.356974 2.9904537,4.1273923 2.6416981,3.8871407 l -0.0437,0.043701 c 0.2753252,0.2901618 0.4276617,0.7138574 0.5826558,1.0779124 0.1404289,0.3298456 0.2299132,0.6708107 0.2840485,1.0269361 0.049065,0.3227915 0.080116,0.6567473 0.036413,0.9832331 -0.1846185,1.3792064 -1.2783588,2.2294672 -2.214098,3.1172197 l 0.9322547,-0.02913 1.3838115,-0.101964 1.005083,-0.1310987 C 4.4299266,9.2055438 4.6058149,8.3763413 4.8339493,7.7399666 5.0296065,7.1941884 5.3715886,6.782864 4.9140596,6.2469023 L 5.5622705,6.3561531 6.4581058,5.7807793 7.2811042,5.380196 7.9730118,5.1107192 8.4100096,4.2367369 C 8.5185607,4.4719294 8.6013324,4.798914 8.8033043,4.979627 9.132321,5.2740123 9.7447096,5.2448696 10.150699,5.3802016 10.525177,5.5050265 10.887703,5.85488 11.265028,5.9264407 11.663143,6.0019477 12.35373,5.5811372 12.64884,5.3292144 l 0.04372,0.043724 c -0.251887,0.2951402 -0.67272,0.9857039 -0.597222,1.3838105 0.07156,0.3773252 0.421421,0.7398609 0.546247,1.1143378 0.135324,0.4059816 0.10619,1.0183762 0.400575,1.3473943 0.180711,0.201974 0.507686,0.2847388 0.74289,0.3932952 l -0.87399,0.4369898 -0.269477,0.691907 -0.400575,0.823007 -0.575375,0.895834 0.109238,0.648203 c -0.535955,-0.45752 -0.947279,-0.115538 -1.493057,0.08011 -0.6363756,0.228136 -1.465576,0.404022 -2.1339819,0.225782 l -0.1310985,1.005083 -0.1019658,1.383811 -0.029132,0.932254 c 0.8877537,-0.935738 1.7380067,-2.029485 3.1172132,-2.214105 0.326486,-0.04369 0.66045,-0.01265 0.983241,0.03642 0.356118,0.05412 0.697082,0.143613 1.026929,0.284041 0.364055,0.154995 0.787738,0.30736 1.077922,0.582663 l 0.0437,-0.04369 c -0.240252,-0.348755 -0.469841,-0.739459 -0.604504,-1.143464 -0.09911,-0.297334 -0.168259,-0.640741 -0.182083,-0.954104 -0.03868,-0.876827 0.460361,-1.533768 1.092484,-2.053867 0.80095,-0.659046 1.681564,-1.139154 2.62196,-1.5731753 C 16.788889,9.4770304 16.458884,9.3793967 16.15938,9.2476147 15.56013,8.9839446 14.998906,8.6103029 14.498808,8.198833 13.970595,7.7642241 13.859744,7.0024793 13.945277,6.3634551 c 0.138039,-1.0312185 0.56588,-2.0365123 1.077924,-2.9424153 0.16599,-0.2936889 0.513281,-0.7057761 0.553518,-1.019657 M 11.381584,6.5965181 C 10.873498,6.8764824 10.358435,7.1517902 9.8375394,7.412239 9.5691296,7.5464786 9.242547,7.6324707 8.9781233,7.4268091 8.6626734,7.1814591 8.6234358,6.6792018 8.3663358,6.3780275 8.101333,6.8876462 7.9058533,7.7408755 7.1500625,7.6817481 6.7506915,7.650496 6.3963741,7.2805627 6.0065994,7.2520422 c 0.025408,0.347191 0.3173958,0.6662452 0.3787313,1.0196534 0.1381077,0.7957799 -0.5994628,1.019068 -1.0779216,1.4275061 0.2400856,0.2049486 0.609303,0.2597092 0.8302893,0.4806953 0.5521498,0.552149 0.1348805,1.215376 -0.131101,1.791669 l 0.043724,0.04372 c 0.5762933,-0.265981 1.2395281,-0.683242 1.7916778,-0.131093 0.2209863,0.220987 0.275745,0.590205 0.4806877,0.830282 0.3632499,-0.4256 0.6001692,-1.166446 1.3036995,-1.11433 0.4018066,0.02977 0.7549056,0.386709 1.1434676,0.415147 C 10.741334,11.625518 10.3714,11.271201 10.34014,10.871822 10.28098,10.116007 11.134219,9.9205269 11.643861,9.6555489 11.342688,9.3984478 10.840422,9.3592023 10.595079,9.0437616 10.38942,8.7793356 10.475424,8.4527718 10.609649,8.1843375 c 0.184264,-0.3685347 0.384006,-0.724309 0.568095,-1.09248 0.08427,-0.168554 0.207908,-0.3174529 0.203925,-0.4952639 M 5.1326675,10.398446 2.860302,10.573241 1.8188029,10.667927 1.505592,11.053905 0.93750203,11.796795 1.8041997,12.066267 2.357725,12.168238 2.8966874,11.833214 4.098419,11.112176 5.1326358,10.39842 m 2.4034615,2.403462 -1.2381436,1.995604 -0.5025433,0.895836 0.3860069,1.347394 0.8302892,-0.65549 0.2913182,-0.233073 0.1019658,-1.209011 0.1310977,-2.141268 M 4.870429,11.272395 2.8238459,12.459563 2.0882389,12.932971 2.073675,13.457365 2.2047703,15.074238 3.6031487,13.675859 C 4.2439983,13.034997 4.9707745,12.2555 4.8704238,11.272387 M 6.705793,13.107755 C 6.26085,13.235963 5.7762478,13.269279 5.3656831,13.515619 4.4536874,14.062815 3.6984789,15.066333 2.9476744,15.817138 l 1.6168737,0.131095 0.5680877,-0.04369 0.2986171,-0.487971 0.6773392,-1.158032 z"
     id="path1" /></svg>

<?xml version="1.0" encoding="UTF-8"?>
<svg id="svg1" width="24" height="24" preserveAspectRatio="xMidYMid" version="1.0" viewBox="0 0 18 18" xml:space="preserve" xmlns="http://www.w3.org/2000/svg"><path id="path1" d="m15.577 2.4014c-0.36101 0.30814-0.84254 0.53053-1.2673 0.74289-1.2899 0.64497-3.1082 1.5282-4.3991 0.46613-0.81257-0.66857-0.99874-1.815-1.544-2.6511-0.43403 0.94039-0.91415 1.821-1.5732 2.622-0.52008 0.63215-1.1771 1.1311-2.0539 1.0925-0.31336-0.013823-0.65678-0.082975-0.9541-0.18208-0.40401-0.13467-0.79471-0.36425-1.1435-0.6045l-0.0437 0.043701c0.27533 0.29016 0.42766 0.71386 0.58266 1.0779 0.14043 0.32985 0.22991 0.67081 0.28405 1.0269 0.049065 0.32279 0.080116 0.65675 0.036413 0.98323-0.18462 1.3792-1.2784 2.2295-2.2141 3.1172l0.93225-0.02913 1.3838-0.10196 1.0051-0.1311c-0.17824-0.66841-0.0023517-1.4976 0.22578-2.134 0.19566-0.54578 0.53764-0.9571 0.08011-1.4931l0.64821 0.10925 0.89584-0.57537 0.823-0.40058 0.69191-0.26948 0.437-0.87398c0.10855 0.23519 0.19132 0.56218 0.39329 0.74289 0.32902 0.29439 0.94141 0.26524 1.3474 0.40057 0.37448 0.12482 0.737 0.47468 1.1143 0.54624 0.39812 0.075507 1.0887-0.3453 1.3838-0.59723l0.04372 0.043724c-0.25189 0.29514-0.67272 0.9857-0.59722 1.3838 0.07156 0.37733 0.42142 0.73986 0.54625 1.1143 0.13532 0.40598 0.10619 1.0184 0.40058 1.3474 0.18071 0.20197 0.50769 0.28474 0.74289 0.3933l-0.87399 0.43699-0.26948 0.69191-0.40058 0.82301-0.57538 0.89583 0.10924 0.6482c-0.53596-0.45752-0.94728-0.11554-1.4931 0.08011-0.63638 0.22814-1.4656 0.40402-2.134 0.22578l-0.1311 1.0051-0.10197 1.3838-0.029132 0.93225c0.88775-0.93574 1.738-2.0295 3.1172-2.2141 0.32649-0.04369 0.66045-0.01265 0.98324 0.03642 0.35612 0.05412 0.69708 0.14361 1.0269 0.28404 0.36406 0.155 0.78774 0.30736 1.0779 0.58266l0.0437-0.04369c-0.24025-0.34876-0.46984-0.73946-0.6045-1.1435-0.09911-0.29733-0.16826-0.64074-0.18208-0.9541-0.03868-0.87683 0.46036-1.5338 1.0925-2.0539 0.80095-0.65905 1.6816-1.1392 2.622-1.5732-0.27361-0.17845-0.60361-0.27608-0.90312-0.40786-0.59925-0.26367-1.1605-0.63731-1.6606-1.0488-0.52821-0.43461-0.63906-1.1964-0.55353-1.8354 0.13804-1.0312 0.56588-2.0365 1.0779-2.9424 0.16599-0.29369 0.51328-0.70578 0.55352-1.0197m-4.1951 4.1951c-0.50809 0.27996-1.0231 0.55527-1.544 0.81572-0.26841 0.13424-0.59499 0.22023-0.85942 0.01457-0.31545-0.24535-0.35469-0.74761-0.61179-1.0488-0.265 0.50962-0.46048 1.3628-1.2163 1.3037-0.39937-0.031252-0.75369-0.40119-1.1435-0.42971 0.025408 0.34719 0.3174 0.66625 0.37873 1.0197 0.13811 0.79578-0.59946 1.0191-1.0779 1.4275 0.24009 0.20495 0.6093 0.25971 0.83029 0.4807 0.55215 0.55215 0.13488 1.2154-0.1311 1.7917l0.043724 0.04372c0.57629-0.26598 1.2395-0.68324 1.7917-0.13109 0.22099 0.22099 0.27574 0.5902 0.48069 0.83028 0.36325-0.4256 0.60017-1.1664 1.3037-1.1143 0.40181 0.02977 0.75491 0.38671 1.1435 0.41515-0.02852-0.38977-0.39845-0.74409-0.42971-1.1435-0.05916-0.75582 0.79408-0.9513 1.3037-1.2163-0.30117-0.2571-0.80344-0.29635-1.0488-0.61179-0.20566-0.26443-0.11966-0.59099 0.01457-0.85942 0.18426-0.36853 0.38401-0.72431 0.5681-1.0925 0.08427-0.16855 0.20791-0.31745 0.20392-0.49526m-6.249 3.8019-2.2724 0.1748-1.0415 0.094686-0.31321 0.38598-0.56809 0.74289 0.8667 0.26947 0.55353 0.10197 0.53896-0.33502 1.2017-0.72104 1.0342-0.71376m2.4035 2.4035-1.2381 1.9956-0.50254 0.89584 0.38601 1.3474 0.83029-0.65549 0.29132-0.23307 0.10197-1.209 0.1311-2.1413m-2.6657-1.5295-2.0466 1.1872-0.73561 0.47341-0.014564 0.52439 0.1311 1.6169 1.3984-1.3984c0.64085-0.64086 1.3676-1.4204 1.2673-2.4035m1.8354 1.8354c-0.44494 0.12821-0.92955 0.16152-1.3401 0.40786-0.912 0.5472-1.6672 1.5507-2.418 2.3015l1.6169 0.1311 0.56809-0.04369 0.29862-0.48797 0.67734-1.158z"/></svg>
